Sources/FrostedUI/Resources/Icons.xcassets/people220.imageset/people-2-20.svg

<svg width="20" height="20" viewBox="0 0 20 20" fill="none" xmlns="http://www.w3.org/2000/svg" data-fui-icon="true">
  <g clip-path="url(#clip0_4061_7)">
    <path
      d="M7.05005 1.25C9.6734 1.25 11.8 3.37665 11.8 6C11.8 7.35368 11.2321 8.57326 10.3235 9.43848C12.4645 10.4042 13.5928 12.1353 14.1721 13.541C14.8553 15.1991 14.3129 17.1894 12.5676 18.0029C11.4077 18.5435 9.71172 19 7.30005 19C4.68136 19 2.90703 18.462 1.74731 17.8633C0.236757 17.0833 -0.29754 15.3678 0.155518 13.8496C0.589163 12.3968 1.58047 10.4912 3.79028 9.45215C2.87353 8.58617 2.30005 7.36062 2.30005 6C2.30005 3.37665 4.42671 1.25001 7.05005 1.25ZM8.70337 10.4531C8.18838 10.6444 7.63161 10.75 7.05005 10.75C6.47078 10.75 5.91587 10.6459 5.40259 10.4561C3.00319 11.1017 2.01438 12.8674 1.59302 14.2793C1.31234 15.2202 1.66607 16.1328 2.43579 16.5303C3.35875 17.0067 4.89238 17.5 7.30005 17.5C9.51855 17.5 10.9945 17.0813 11.9338 16.6436C12.8353 16.2233 13.2147 15.1543 12.7854 14.1123C12.2138 12.7251 11.0617 11.0715 8.70337 10.4531ZM13.5002 2.25C15.5712 2.25012 17.2502 3.92901 17.2502 6C17.2502 6.94224 16.9012 7.8022 16.3274 8.46094C17.7152 9.11178 18.5558 10.1218 19.05 11.0439C19.8311 12.5013 19.4226 14.3626 17.9192 15.2227C17.5849 15.4138 17.1956 15.596 16.7463 15.752C16.3551 15.8877 15.9281 15.6803 15.7922 15.2891C15.6566 14.8979 15.8632 14.4709 16.2542 14.335C16.615 14.2097 16.9198 14.0662 17.1741 13.9209C17.9051 13.5027 18.1628 12.5646 17.7278 11.7529C17.271 10.9007 16.4283 9.93802 14.8293 9.50586C14.4161 9.66264 13.9685 9.74997 13.5002 9.75C13.086 9.74999 12.7502 9.41421 12.7502 9C12.7502 8.58579 13.086 8.25001 13.5002 8.25C14.7428 8.24988 15.7502 7.24257 15.7502 6C15.7502 4.75743 14.7428 3.75012 13.5002 3.75C13.3717 3.75 13.246 3.76084 13.1243 3.78125C12.716 3.8497 12.3298 3.5742 12.261 3.16602C12.1924 2.75751 12.4677 2.37029 12.8762 2.30176C13.0796 2.26766 13.2882 2.25 13.5002 2.25ZM7.05005 2.75C5.25513 2.75001 3.80005 4.20508 3.80005 6C3.80005 7.79492 5.25513 9.24999 7.05005 9.25C8.84497 9.25 10.3 7.79493 10.3 6C10.3 4.20507 8.84497 2.75 7.05005 2.75Z"
      fill="currentColor"
    />
  </g>
  <defs>
    <clipPath id="clip0_4061_7"><path fill="currentColor" d="M0 0H20V20H0z" /></clipPath>
  </defs>
</svg>

<svg xmlns="http://www.w3.org/2000/svg" width="20" height="20" fill="none" data-fui-icon="true" viewBox="0 0 20 20"><g clip-path="url(#a)"><path fill="currentColor" d="M7.05 1.25a4.75 4.75 0 0 1 3.273 8.188c2.141.966 3.27 2.697 3.85 4.103.682 1.658.14 3.648-1.605 4.462-1.16.54-2.856.997-5.268.997-2.619 0-4.393-.538-5.553-1.137-1.51-.78-2.045-2.495-1.591-4.013.433-1.453 1.424-3.359 3.634-4.398A4.75 4.75 0 0 1 7.05 1.25m1.653 9.203a4.74 4.74 0 0 1-3.3.003c-2.4.646-3.389 2.411-3.81 3.823-.28.941.073 1.854.843 2.251.923.477 2.456.97 4.864.97 2.219 0 3.695-.419 4.634-.856.901-.42 1.28-1.49.851-2.532-.571-1.387-1.723-3.04-4.082-3.659M13.5 2.25a3.75 3.75 0 0 1 2.827 6.21 5.9 5.9 0 0 1 2.723 2.584c.781 1.457.373 3.319-1.13 4.179a7 7 0 0 1-1.174.529.75.75 0 0 1-.492-1.417c.361-.125.666-.269.92-.414.731-.418.989-1.356.554-2.168-.457-.852-1.3-1.815-2.899-2.247-.413.157-.86.244-1.329.244a.75.75 0 0 1 0-1.5 2.25 2.25 0 1 0-.376-4.469.75.75 0 0 1-.248-1.48q.306-.05.624-.051m-6.45.5a3.25 3.25 0 1 0 0 6.5 3.25 3.25 0 0 0 0-6.5"/></g><defs><clipPath id="a"><path fill="currentColor" d="M0 0h20v20H0z"/></clipPath></defs></svg>
